X: 130622
T: My First Night in America
S: Luke O'Malley vol 1
Z: B.Black
M: 6/8
L: 1/8
R: jig
K: G
D | GFG AFD | GFG Bcd | ege dBG | A2 G FED |
GFG AFD | GFG Bcd | ege dBG | AGF G2 :|
d | gfg bge | d^cd e=cA | Bcd efg | a2 g fed |
gfg bge | d^cd e=cA | Bdg dBG | AGF G2 :|
